X:825
M:C
L:1/8
K:E Minor
d>BA>d F<DD:|
f|b>e b/a/g/f/ b<e e>f|b>e b/a/g/f/ a<d d>f|1 b>e b/a/g/f/ g>ef>e|
d>BA>d F<DD:|2 (3efg (3fga (3gab (3efg|B^c/d/ A>d F<DD||

